X:37
T:Fillettes de Libourne
R:Branle
C:trad
A:Pyrnes
O:France
M:2/4
L:1/8
Q:1/4=180
K:G
GA|B2c2|dc BG|A4|A z:||:de|d>c Bc|d z:|
|BB|BB dc|BA DD|G>A Be|d>e dc|B2A2|G2||
W:
W:Les fillettes de Libourne houp !
W:De plus belles n'y a pas.
W:Riou piou piou sur la branchette
W:De plus belles n'y a pas,
W:Le merle chantera.
